img/twitter-4.svg

<svg fill="none" height="33" viewBox="0 0 33 33" width="33" xmlns="http://www.w3.org/2000/svg"><path d="m27.9162 10.5453c.0188.266.0188.5332.0188.7992 0 8.1282-6.1864 17.4938-17.4932 17.4938-3.4834 0-6.71953-1.009-9.4418-2.7598.49512.0569.9709.0762 1.48477.0762 2.87402 0 5.52011-.9715 7.63303-2.6274-1.28295-.0235-2.5265-.4471-3.55701-1.2116-1.03051-.7646-1.79652-1.8318-2.19106-3.0528.38399.0606.772.0923 1.16074.0949.55195 0 1.10391-.0762 1.61777-.2092-1.39209-.2817-2.64373-1.0367-3.54233-2.1366-.89859-1.1-1.38873-2.477-1.38716-3.8974v-.0761c.85195.4754 1.80419.7429 2.7791.7804-.84382-.5612-1.53573-1.3224-2.01407-2.2158-.47835-.8934-.72828-1.89126-.72753-2.90466 0-1.14199.30469-2.18906.83789-3.10254 1.54437 1.90078 3.471 3.45574 5.65495 4.5641 2.18391 1.1083 4.57651 1.7452 7.02241 1.8695-.0949-.457-.1524-.9322-.1524-1.408 0-3.38849 2.7411-6.14884 6.1489-6.14884 1.7695 0 3.3691.74238 4.4924 1.94179 1.3769-.26517 2.6973-.76756 3.9023-1.48476-.4586 1.42098-1.4198 2.62582-2.7035 3.38847 1.2375-.13359 2.4369-.47636 3.5408-.95214-.8418 1.22568-1.8843 2.30053-3.0838 3.17928z" fill="#1d9bf0"/></svg>

<svg width="33" height="33" viewBox="0 0 33 33" fill="none" xmlns="http://www.w3.org/2000/svg">
<path d="M27.9162 10.5453C27.935 10.8113 27.935 11.0785 27.935 11.3445C27.935 19.4727 21.7486 28.8383 10.4418 28.8383C6.9584 28.8383 3.72227 27.8293 1 26.0785C1.49512 26.1354 1.9709 26.1547 2.48477 26.1547C5.35879 26.1547 8.00488 25.1832 10.1178 23.5273C8.83485 23.5038 7.5913 23.0802 6.56079 22.3157C5.53028 21.5511 4.76427 20.4839 4.36973 19.2629C4.75372 19.3235 5.14173 19.3552 5.53047 19.3578C6.08242 19.3578 6.63438 19.2816 7.14824 19.1486C5.75615 18.8669 4.50451 18.1119 3.60591 17.012C2.70732 15.912 2.21718 14.535 2.21875 13.1146V13.0385C3.0707 13.5139 4.02294 13.7814 4.99785 13.8189C4.15403 13.2577 3.46212 12.4965 2.98378 11.6031C2.50543 10.7097 2.2555 9.71184 2.25625 8.69844C2.25625 7.55645 2.56094 6.50938 3.09414 5.5959C4.63851 7.49668 6.56514 9.05164 8.74909 10.16C10.933 11.2683 13.3256 11.9052 15.7715 12.0295C15.6766 11.5725 15.6191 11.0973 15.6191 10.6215C15.6191 7.23301 18.3602 4.47266 21.768 4.47266C23.5375 4.47266 25.1371 5.21504 26.2604 6.41445C27.6373 6.14928 28.9577 5.64689 30.1627 4.92969C29.7041 6.35067 28.7429 7.55551 27.4592 8.31816C28.6967 8.18457 29.8961 7.8418 31 7.36602C30.1582 8.5917 29.1157 9.66655 27.9162 10.5453Z" fill="#1D9BF0"/>
</svg>
